!!!!SEGMENT: pl-kk--kk-i-111--008-003_anonim--deo-gratias-ferijs-4.krn
!!!id: 18xx:2573
!!!COM: Anonim
!!!COM-rism: pe30004985
!!!CDT:
!!!CNT:
!!!OTL: Deo gratias – Ferijs 4
!!!PDT: 1824
!!!SMS-siglum: PL-Kk
!!!SMS-shelfmark: Kk.I.111
!!!NIFC-rismID: 1001157688
!!!URL-scan: http://repozytorium.nifc.pl/skany/pl-kk-nut--i-111
!!!ONB-nifc: UWAGA: A, T1, T2. Podział na poszególne Deo gratias. A: skan 0003 (m.in)
!!!SMS-variant:
!!!SMS-altvar:
**kern	**text	**kern	**text	**kern	**text
*part3	*part3	*part2	*part2	*part1	*part1
*staff3	*staff3	*staff2	*staff2	*staff1	*staff1
*I"Tenore Vagante.	*	*I"Tenore Chorale.	*	*I"Alto.	*
*I'T 2	*	*I'T 1	*	*I'A	*
*clefC4	*	*clefC4	*	*clefC3	*
*k[]	*	*k[]	*	*k[]	*
*M2/1	*	*M2/1	*	*M2/1	*
*met(C|)	*	*met(C|)	*	*met(C|)	*
*all\right	*	*	*	*all\right	*
=1-	=1-	=1-	=1-	=1-	=1-
*2\right	*	*	*	*2\right	*
!	!	!LO:TX:t=P:problem:kreska pseudotaktowa	!	!	!
2A\	De-	1A	De-	2.e\	De-
!LO:TX:t=P:problem:kreska pseudotaktowa:między nutą a kropką	!	!	!	!	!
2.c\	.	.	.	.	.
!	!	!	!	!LO:TX:t=P:problem:kreska pseudotaktowa	!
.	.	.	.	4d\	-o
!	!	!LO:TX:t=P:problem:kreska pseudotaktowa	!	!	!
.	.	1E	.	4e\	.
4d\	.	.	.	4f\	.
!LO:TX:t=P:problem:kreska pseudotaktowa:między nutą a kropką	!	!	!	!LO:TX:t=P:problem:kreska pseudotaktowa	!
[>2e\	-o	.	.	2g\	.
=2-	=2-	=2-	=2-	=2-	=2-
!LO:N:xstem:cue	!	!LO:TX:t=P:problem:kreska pseudotaktowa	!	!	!
!	!	!	!	!LO:SIC:v:s=2.g#?	!
4e\]	.	1G#X	-o	2.g\	.
4d\	.	.	.	.	.
4B\	.	.	.	.	.
!LO:TX:t=P:problem:kreska pseudotaktowa	!	!	!	!LO:TX:t=P:problem:kreska pseudotaktowa	!
4c\	.	.	.	4f\	.
!	!	!LO:TX:t=P:problem:kreska pseudotaktowa	!	!	!
2d\	gra-	1A	.	2e\	.
!LO:TX:t=P:problem:kreska pseudotaktowa	!	!	!	!LO:TX:t=P:problem:kreska pseudotaktowa	!
2d\	-ti-	.	.	2f\	.
=3-	=3-	=3-	=3-	=3-	=3-
!	!	!LO:TX:t=P:problem:kreska pseudotaktowa	!	!	!
2c\	-as	1A	.	2c\	.
!LO:TX:t=P:problem:kreska pseudotaktowa	!	!	!	!LO:TX:t=P:problem:kreska pseudotaktowa	!
2A\	De-	.	.	2d\	.
!	!	!LO:TX:t=P:problem:kreska pseudotaktowa	!	!	!
2B\	.	1G#X	.	1.e	gra-
!LO:TX:t=P:problem:kreska pseudotaktowa:między nutą a kropką	!	!	!	!	!
2.c\	-o	.	.	.	.
=4-	=4-	=4-	=4-	=4-	=4-
!	!	!LO:TX:t=P:problem:kreska pseudotaktowa	!	!	!
.	.	1A	gra-	.	.
4B\	gra-	.	.	.	.
!	!	!	!	!LO:TX:t=P:problem:kreska pseudotaktowa	!
1A	-ti-	.	.	2f\	.
!	!	!LO:TX:t=P:problem:kreska pseudotaktowa	!	!	!
.	.	1B	.	2.d\	.
!LO:TX:t=P:problem:kreska pseudotaktowa	!	!	!	!	!
2G#X/	-as	.	.	.	.
!	!	!	!	!LO:TX:t=P:problem:kreska pseudotaktowa	!
.	.	.	.	4d\	-ti-
=5-	=5-	=5-	=5-	=5-	=5-
!	!	!LO:TX:t=P:problem:kreska pseudotaktowa	!	!	!
4A\	.	1c	.	2c\	-as
4B\	.	.	.	.	.
4c\	.	.	.	1e	De-
!LO:TX:t=P:problem:kreska pseudotaktowa	!	!	!	!	!
4d\	.	.	.	.	.
!	!	!LO:TX:t=P:problem:kreska pseudotaktowa	!	!	!
2e\	De-	1A	.	.	.
!	!	!	!	!LO:TX:t=P:problem:kreska pseudotaktowa	!
4d\	.	.	.	2f\	-o
!LO:TX:t=P:problem:kreska pseudotaktowa	!	!	!	!	!
4c\	.	.	.	.	.
=6-	=6-	=6-	=6-	=6-	=6-
4B\	-o	1.Gn	.	2g\	gra-
4A\	.	.	.	.	.
4B\	.	.	.	4f\	.
!LO:TX:t=P:problem:kreska pseudotaktowa	!	!	!	!LO:TX:t=P:problem:kreska pseudotaktowa	!
4c\	.	.	.	4e\	.
!	!	!	!	!LO:TX:t=P:problem:kreska pseudotaktowa	!
2d\	.	.	.	1d	.
!LO:TX:t=P:problem:kreska pseudotaktowa	!	!LO:TX:t=P:problem:kreska pseudotaktowa	!	!	!
2B\	.	2G/	-ti-	.	.
=7-	=7-	=7-	=7-	=7-	=7-
!	!	!LO:TX:t=P:problem:kreska pseudotaktowa	!	!	!
2e\	gra-	0A	-as.	2c\	.
!	!	!	!	!LO:TX:t=P:problem:kreska pseudotaktowa:między nutą a kropką	!
1c	.	.	.	2.e\	.
.	.	.	.	.	.
.	.	.	.	4d\	.
!LO:TX:t=P:problem:kreska pseudotaktowa	!	!	!	!	!
2d\	-ti-	.	.	1d\	.
=8-	=8-	=8-	=8-	=8-	=8-
!LO:TX:t=P:problem:kreska pseudotaktowa	!	!	!	!	!
1e	-as	00.A;>	.	.	.
!	!	!	!	!LO:TX:t=P:problem:kreska pseudotaktowa	!
.	.	.	.	2c#X\	-ti-
2f\	De-	.	.	2d\	-as
!LO:TX:t=P:problem:kreska pseudotaktowa	!	!	!	!LO:TX:t=P:problem:kreska pseudotaktowa	!
2d\	.	.	.	2f\	De-
=9-	=9-	=9-	=9-	=9-	=9-
2c\	-o	.	.	2e\	-o
!LO:TX:t=P:problem:kreska pseudotaktowa	!	!	!	!LO:TX:t=P:problem:kreska pseudotaktowa	!
2d\	.	.	.	2f\	.
2f\	gra-	.	.	2d\	gra-
!LO:TX:t=P:problem:kreska pseudotaktowa	!	!	!	!LO:TX:t=P:problem:kreska pseudotaktowa	!
2e\	.	.	.	2e\	.
=10-	=10-	=10-	=10-	=10-	=10-
2.d\	.	.	.	2.f\	.
!LO:TX:t=P:problem:kreska pseudotaktowa	!	!	!	!LO:TX:t=P:problem:kreska pseudotaktowa	!
4d\	-ti-	.	.	4f\	-ti-
!LO:N:vis=0	!	!	!	!LO:N:vis=0	!
1c#X;>	-as.	.	.	1e;>	-as.
=-	=-	=-	=-	=-	=-
*-	*-	*-	*-	*-	*-
!!!system-decoration: [(s1,s2,s3)]
!!!RDF**kern: < = below
!!!RDF**kern: > = above
!!!ENC: Marta Chmielewska
!!!END: 2021-08-04
!!!ENC: Tomasz Grochalski
!!!END: 2021-07-10
